static/images/icons/task_analysis.svg

<svg fill="none" height="80" viewBox="0 0 80 80" width="80" xmlns="http://www.w3.org/2000/svg"><g fill="currentColor"><path d="m21.3136 26.9578c-.259 0-.5074-.1029-.6906-.286-.1831-.1832-.286-.4316-.286-.6906v-4.6144c-.0005-.3855-.1539-.7551-.4265-1.0276-.2727-.2726-.6423-.4259-1.0278-.4263h-4.5078c-.3854.0005-.7549.1539-1.0274.4264-.2724.2726-.4257.6421-.4261 1.0275v4.6144c0 .259-.1029.5074-.286.6906-.1832.1831-.4316.286-.6906.286s-.5074-.1029-.6905-.286c-.1832-.1832-.286-.4316-.286-.6906v-4.6144c.0009-.9033.3601-1.7693.9987-2.408.6387-.6387 1.5047-.998 2.4079-.999h4.5078c.9034.0009 1.7695.3601 2.4083.9989.6388.6387.9981 1.5047.9991 2.4081v4.6144c0 .259-.1028.5074-.286.6906-.1831.1831-.4315.286-.6905.286z"/><path d="m16.5747 19.1437c-.8614 0-1.7033-.2555-2.4195-.7341-.7161-.4786-1.2743-1.1588-1.6038-1.9546-.3296-.7958-.4158-1.6714-.2477-2.5162s.5829-1.6207 1.192-2.2298c.6091-.609 1.3851-1.0237 2.2299-1.1918.8448-.168 1.7204-.0817 2.5162.2479.7957.3297 1.4759.8879 1.9544 1.6041.4785.7161.7339 1.5581.7339 2.4195-.0012 1.1547-.4605 2.2618-1.2771 3.0782-.8165.8165-1.9236 1.2757-3.0783 1.2768zm0-6.7578c-.4751.0001-.9394.141-1.3344.405-.3949.264-.7027.6392-.8845 1.0781-.1817.4389-.2292.9218-.1365 1.3877s.3215.8939.6575 1.2298c.3359.3358.7639.5646 1.2298.6572.4659.0927.9489.0451 1.3877-.1367.4389-.1818.814-.4897 1.0779-.8847s.4048-.8594.4048-1.3344c-.0008-.6368-.2542-1.2472-.7046-1.6974s-1.061-.7033-1.6977-.7038z"/><path d="m16.5747 4.15313c-2.4277 0-4.8009.71989-6.81945 2.06864-2.01854 1.34876-3.59181 3.26579-4.52085 5.50863-.92903 2.2429-1.17211 4.711-.69849 7.092s1.64266 4.5682 3.35929 6.2848c1.71664 1.7166 3.9038 2.8857 6.2848 3.3593s4.8491.2305 7.092-.6985c2.2428-.929 4.1599-2.5023 5.5086-4.5209 1.3488-2.0185 2.0687-4.3917 2.0687-6.8194-.0038-3.2542-1.2982-6.3742-3.5993-8.67531-2.3011-2.30113-5.4211-3.59554-8.6753-3.59926zm0 22.59607c-2.0414 0-4.037-.6053-5.7343-1.7395-1.69741-1.1341-3.02034-2.7461-3.80154-4.6321-.78121-1.886-.98561-3.9613-.58736-5.9635.39826-2.0022 1.38129-3.8413 2.82477-5.28475 1.44353-1.44349 3.28263-2.42651 5.28473-2.82477 2.0022-.39826 4.0775-.19386 5.9635.58735s3.498 2.10414 4.6322 3.80147c1.1341 1.6974 1.7394 3.6929 1.7394 5.7343-.0031 2.7365-1.0915 5.36-3.0265 7.295s-4.5585 3.0234-7.2949 3.0265z"/><path d="m78.5996.276551h-30.3489c-.259 0-.5074.102887-.6905.286028s-.286.431534-.286.690531v30.34919c0 .259.1029.5074.286.6906.1831.1831.4315.286.6905.286h13.6243v10.0391l-2.9368-2.9364c-.1842-.1779-.4308-.2763-.6869-.2741-.256.0023-.501.105-.682.286-.1811.1811-.2838.426-.286.6821-.0022.256.0962.5027.2741.6869l4.6035 4.6035c.0907.0907.1983.1627.3168.2118s.2455.0743.3738.0743.2553-.0252.3738-.0743.2262-.1211.3168-.2118l4.6036-4.6035c.1778-.1842.2763-.4309.2741-.6869-.0023-.2561-.105-.501-.286-.6821-.1811-.181-.426-.2837-.6821-.286-.256-.0022-.5027.0962-.6869.2741l-2.9367 2.9379v-10.039h14.7722c.259 0 .5074-.1029.6906-.2861.1831-.1831.286-.4315.286-.6905v-30.35079c0-.12831-.0253-.255359-.0744-.373892s-.1211-.226223-.2119-.316915c-.0908-.090693-.1985-.16261-.3171-.211641s-.2456-.074214-.3739-.074111zm-.9766 30.349249h-28.3957v-28.39612h28.3957z"/><path d="m31.7492 47.3742h-30.34881c-.259 0-.507392.1029-.690533.2861-.183141.1831-.286029.4315-.286029.6905v30.3492c0 .259.102888.5074.286029.6906.183141.1831.431533.286.690533.286h30.34881c.259 0 .5074-.1029.6906-.286.1831-.1832.286-.4316.286-.6906v-30.3492c0-.259-.1029-.5074-.286-.6905-.1832-.1832-.4316-.2861-.6906-.2861zm-.9765 30.3493h-28.39575v-28.3961h28.39575z"/><path d="m78.5998 47.3742h-30.3488c-.259 0-.5074.1029-.6906.2861-.1831.1831-.286.4315-.286.6905v14.198h-10.041l2.9367-2.9363c.1832-.1831.2861-.4316.2861-.6906s-.1029-.5075-.2861-.6906c-.1832-.1832-.4316-.2861-.6906-.2861-.2591 0-.5075.1029-.6906.2861l-4.6036 4.6039c-.183.1831-.2859.4315-.2859.6904 0 .259.1029.5073.2859.6904l4.6039 4.6035c.1834.1819.4314.2837.6896.2832.2583-.0006.5058-.1034.6885-.286.1826-.1826.2855-.4301.2861-.6883.0006-.2583-.1011-.5063-.2829-.6897l-2.9367-2.9367h10.041v14.198c0 .259.1029.5074.286.6906.1832.1831.4316.286.6906.286h30.3488c.259 0 .5074-.1029.6905-.286.1832-.1832.286-.4316.286-.6906v-30.3492c0-.1283-.0252-.2553-.0743-.3738s-.1211-.2262-.2118-.3169-.1984-.1626-.317-.2116c-.1185-.0491-.2455-.0743-.3738-.0743zm-.9766 30.3493h-28.3957v-28.3961h28.3957z"/><path d="m42.7668 17.4043-2.9367 2.9363c-.0907.0907-.1627.1984-.2117.3169-.0491.1185-.0744.2455-.0744.3737 0 .1283.0253.2553.0744.3738.049.1185.121.2262.2117.3169s.1983.1626.3168.2117.2455.0743.3738.0743.2553-.0252.3738-.0743.2261-.121.3168-.2117l4.6035-4.6039c.1831-.1832.286-.4315.286-.6905 0-.2589-.1029-.5073-.286-.6904l-4.6039-4.6035c-.1833-.1819-.4313-.2837-.6896-.2831-.2582.0005-.5058.1033-.6884.2859s-.2855.4301-.2861.6884c-.0006.2582.1011.5062.2829.6896l2.9367 2.9368h-10.0391v-14.19809c0-.258998-.1028-.50739-.286-.690531-.1831-.183141-.4315-.286029-.6905-.286029h-30.35041c-.259 0-.507392.102888-.690533.286029s-.286029.431533-.286029.690531v30.34919c0 .259.102888.5074.286029.6906.183141.1831.431533.286.690533.286h30.34881c.259 0 .5074-.1029.6906-.286.1831-.1832.286-.4316.286-.6906v-14.198zm-11.9922 13.2215h-28.39765v-28.39612h28.39575z"/><path d="m16.5748 74.843c2.2384 0 4.4266-.6637 6.2878-1.9072 1.8612-1.2436 3.3119-3.0111 4.1685-5.0791.8567-2.068 1.0809-4.3436.6442-6.539-.4366-2.1955-1.5145-4.2121-3.0973-5.7949s-3.5993-2.6608-5.7948-3.0975c-2.1954-.4367-4.471-.2126-6.539.644-2.0681.8566-3.83564 2.3072-5.07925 4.1683-1.24361 1.8612-1.90738 4.0494-1.90738 6.2878.00341 3.0005 1.19684 5.8771 3.31847 7.9988 2.12166 2.1217 4.99826 3.3152 7.99876 3.3188zm0-20.6817c1.8521-.0001 3.6627.5491 5.2027 1.5781 1.5401 1.0289 2.7404 2.4914 3.4492 4.2026.7088 1.7111.8943 3.594.533 5.4106s-1.2532 3.4852-2.5629 4.7948c-1.3096 1.3097-2.9783 2.2016-4.7948 2.5629-1.8166.3613-3.6995.1758-5.4107-.533-1.7111-.7088-3.17362-1.9091-4.20257-3.4492-1.02895-1.54-1.57811-3.3506-1.57804-5.2027.0029-2.4826.9904-4.8627 2.74587-6.6182 1.75544-1.7555 4.13554-2.743 6.61824-2.7459z"/><path d="m15.5986 67.1973c-.016 0-.0324 0-.0484 0-.1362-.0069-.2696-.0422-.3913-.1037-.1218-.0614-.2294-.1478-.3157-.2534l-2.7231-3.3277c-.0838-.0989-.147-.2135-.1861-.3372-.039-.1236-.0531-.2538-.0413-.3829s.0492-.2546.11-.3691.1438-.2157.2441-.2978.216-.1435.3403-.1804.2546-.0487.3835-.0347.2537.0535.3672.1162c.1134.0628.2133.1475.2937.2492l2.0398 2.4922 4.2285-4.2282c.0901-.0932.1979-.1676.317-.2188s.2473-.0781.377-.0793c.1296-.0011.2582.0236.3782.0727s.2291.1216.3208.2133.1642.2008.2133.3208.0738.2486.0727.3782c-.0012.1297-.0281.2579-.0793.377s-.1256.2269-.2188.317l-4.9914 4.9902c-.0907.0908-.1984.1628-.3169.2119s-.2455.0744-.3738.0745z"/><path d="m65.455 11.675h-9.1144c-.259 0-.5074-.1029-.6906-.286-.1831-.1832-.286-.4316-.286-.6906s.1029-.5073.286-.6905c.1832-.18313.4316-.28601.6906-.28601h9.1144c.259 0 .5074.10288.6906.28601.1831.1832.286.4315.286.6905s-.1029.5074-.286.6906c-.1832.1831-.4316.286-.6906.286z"/><path d="m69.3613 17.4043h-13.0207c-.259 0-.5074-.1029-.6906-.286-.1831-.1832-.286-.4316-.286-.6906s.1029-.5073.286-.6905c.1832-.1831.4316-.286.6906-.286h13.0207c.259 0 .5074.1029.6905.286.1832.1832.286.4315.286.6905s-.1028.5074-.286.6906c-.1831.1831-.4315.286-.6905.286z"/><path d="m69.3613 23.1336h-13.0207c-.259 0-.5074-.1029-.6906-.286-.1831-.1832-.286-.4316-.286-.6906s.1029-.5074.286-.6905c.1832-.1831.4316-.286.6906-.286h13.0207c.259 0 .5074.1029.6905.286.1832.1831.286.4315.286.6905s-.1028.5074-.286.6906c-.1831.1831-.4315.286-.6905.286z"/><path d="m65.455 58.7727h-9.1144c-.259 0-.5074-.1029-.6906-.2861-.1831-.1831-.286-.4315-.286-.6905s.1029-.5074.286-.6905c.1832-.1832.4316-.2861.6906-.2861h9.1144c.259 0 .5074.1029.6906.2861.1831.1831.286.4315.286.6905s-.1029.5074-.286.6905c-.1832.1832-.4316.2861-.6906.2861z"/><path d="m69.3613 64.502h-13.0207c-.259 0-.5074-.1029-.6906-.2861-.1831-.1831-.286-.4315-.286-.6905s.1029-.5074.286-.6905c.1832-.1832.4316-.2861.6906-.2861h13.0207c.259 0 .5074.1029.6905.2861.1832.1831.286.4315.286.6905s-.1028.5074-.286.6905c-.1831.1832-.4315.2861-.6905.2861z"/><path d="m69.3613 70.2313h-13.0207c-.259 0-.5074-.1029-.6906-.2861-.1831-.1831-.286-.4315-.286-.6905s.1029-.5074.286-.6905c.1832-.1832.4316-.2861.6906-.2861h13.0207c.259 0 .5074.1029.6905.2861.1832.1831.286.4315.286.6905s-.1028.5074-.286.6905c-.1831.1832-.4315.2861-.6905.2861z"/></g></svg>

<svg width="80" height="80" viewBox="0 0 80 80" fill="none" xmlns="http://www.w3.org/2000/svg">
<path d="M21.3136 26.9578C21.0546 26.9578 20.8062 26.8549 20.623 26.6718C20.4399 26.4886 20.337 26.2402 20.337 25.9812V21.3668C20.3365 20.9813 20.1831 20.6117 19.9105 20.3392C19.6378 20.0666 19.2682 19.9133 18.8827 19.9129H14.3749C13.9895 19.9134 13.62 20.0668 13.3475 20.3393C13.0751 20.6119 12.9218 20.9814 12.9214 21.3668V25.9812C12.9214 26.2402 12.8185 26.4886 12.6354 26.6718C12.4522 26.8549 12.2038 26.9578 11.9448 26.9578C11.6858 26.9578 11.4374 26.8549 11.2543 26.6718C11.0711 26.4886 10.9683 26.2402 10.9683 25.9812V21.3668C10.9692 20.4635 11.3284 19.5975 11.967 18.9588C12.6057 18.3201 13.4717 17.9608 14.3749 17.9598H18.8827C19.7861 17.9607 20.6522 18.3199 21.291 18.9587C21.9298 19.5974 22.2891 20.4634 22.2901 21.3668V25.9812C22.2901 26.2402 22.1873 26.4886 22.0041 26.6718C21.821 26.8549 21.5726 26.9578 21.3136 26.9578V26.9578Z" fill="currentColor"/>
<path d="M16.5747 19.1437C15.7133 19.1437 14.8714 18.8882 14.1552 18.4096C13.4391 17.931 12.8809 17.2508 12.5514 16.455C12.2218 15.6592 12.1356 14.7836 12.3037 13.9388C12.4718 13.094 12.8866 12.3181 13.4957 11.709C14.1048 11.1 14.8808 10.6853 15.7256 10.5172C16.5704 10.3492 17.446 10.4355 18.2418 10.7651C19.0375 11.0948 19.7177 11.653 20.1962 12.3692C20.6747 13.0853 20.9301 13.9273 20.9301 14.7887C20.9289 15.9434 20.4696 17.0505 19.653 17.8669C18.8365 18.6834 17.7294 19.1426 16.5747 19.1437ZM16.5747 12.3859C16.0996 12.386 15.6353 12.5269 15.2403 12.7909C14.8454 13.0549 14.5376 13.4301 14.3558 13.869C14.1741 14.3079 14.1266 14.7908 14.2193 15.2567C14.312 15.7226 14.5408 16.1506 14.8768 16.4865C15.2127 16.8223 15.6407 17.0511 16.1066 17.1437C16.5725 17.2364 17.0555 17.1888 17.4943 17.007C17.9332 16.8252 18.3083 16.5173 18.5722 16.1223C18.8361 15.7273 18.977 15.2629 18.977 14.7879C18.9762 14.1511 18.7228 13.5407 18.2724 13.0905C17.822 12.6403 17.2114 12.3872 16.5747 12.3867V12.3859Z" fill="currentColor"/>
<path d="M16.5747 4.15313C14.147 4.15313 11.7738 4.87302 9.75525 6.22177C7.73671 7.57053 6.16344 9.48756 5.2344 11.7304C4.30537 13.9733 4.06229 16.4414 4.53591 18.8224C5.00953 21.2034 6.17857 23.3906 7.8952 25.1072C9.61184 26.8238 11.799 27.9929 14.18 28.4665C16.561 28.9401 19.0291 28.697 21.272 27.768C23.5148 26.839 25.4319 25.2657 26.7806 23.2471C28.1294 21.2286 28.8493 18.8554 28.8493 16.4277C28.8455 13.1735 27.5511 10.0535 25.25 7.75239C22.9489 5.45126 19.8289 4.15685 16.5747 4.15313V4.15313ZM16.5747 26.7492C14.5333 26.7492 12.5377 26.1439 10.8404 25.0097C9.14299 23.8756 7.82006 22.2636 7.03886 20.3776C6.25765 18.4916 6.05325 16.4163 6.4515 14.4141C6.84976 12.4119 7.83279 10.5728 9.27627 9.12935C10.7198 7.68586 12.5589 6.70284 14.561 6.30458C16.5632 5.90632 18.6385 6.11072 20.5245 6.89193C22.4105 7.67314 24.0225 8.99607 25.1567 10.6934C26.2908 12.3908 26.8961 14.3863 26.8961 16.4277C26.893 19.1642 25.8046 21.7877 23.8696 23.7227C21.9346 25.6577 19.3111 26.7461 16.5747 26.7492V26.7492Z" fill="currentColor"/>
<path d="M78.5996 0.276551H48.2507C47.9917 0.276551 47.7433 0.379438 47.5602 0.562579C47.3771 0.74572 47.2742 0.994113 47.2742 1.25311V31.6023C47.2742 31.8613 47.3771 32.1097 47.5602 32.2929C47.7433 32.476 47.9917 32.5789 48.2507 32.5789H61.875V42.618L58.9382 39.6816C58.754 39.5037 58.5074 39.4053 58.2513 39.4075C57.9953 39.4098 57.7503 39.5125 57.5693 39.6935C57.3882 39.8746 57.2855 40.1195 57.2833 40.3756C57.2811 40.6316 57.3795 40.8783 57.5574 41.0625L62.1609 45.666C62.2516 45.7567 62.3592 45.8287 62.4777 45.8778C62.5962 45.9269 62.7232 45.9521 62.8515 45.9521C62.9798 45.9521 63.1068 45.9269 63.2253 45.8778C63.3438 45.8287 63.4515 45.7567 63.5421 45.666L68.1457 41.0625C68.3235 40.8783 68.422 40.6316 68.4198 40.3756C68.4175 40.1195 68.3148 39.8746 68.1338 39.6935C67.9527 39.5125 67.7078 39.4098 67.4517 39.4075C67.1957 39.4053 66.949 39.5037 66.7648 39.6816L63.8281 42.6195V32.5805H78.6003C78.8593 32.5805 79.1077 32.4776 79.2909 32.2944C79.474 32.1113 79.5769 31.8629 79.5769 31.6039V1.25311C79.5769 1.1248 79.5516 0.997751 79.5025 0.879218C79.4534 0.760685 79.3814 0.652995 79.2906 0.562303C79.1998 0.47161 79.0921 0.399693 78.9735 0.350662C78.8549 0.301631 78.7279 0.276448 78.5996 0.276551V0.276551ZM77.623 30.6258H49.2273V2.22968H77.623V30.6258Z" fill="currentColor"/>
<path d="M31.7492 47.3742H1.40039C1.14139 47.3742 0.892998 47.4771 0.709857 47.6603C0.526716 47.8434 0.423828 48.0918 0.423828 48.3508V78.7C0.423828 78.959 0.526716 79.2074 0.709857 79.3906C0.892998 79.5737 1.14139 79.6766 1.40039 79.6766H31.7492C32.0082 79.6766 32.2566 79.5737 32.4398 79.3906C32.6229 79.2074 32.7258 78.959 32.7258 78.7V48.3508C32.7258 48.0918 32.6229 47.8434 32.4398 47.6603C32.2566 47.4771 32.0082 47.3742 31.7492 47.3742V47.3742ZM30.7727 77.7235H2.37695V49.3274H30.7727V77.7235Z" fill="currentColor"/>
<path d="M78.5998 47.3742H48.251C47.992 47.3742 47.7436 47.4771 47.5604 47.6603C47.3773 47.8434 47.2744 48.0918 47.2744 48.3508V62.5488H37.2334L40.1701 59.6125C40.3533 59.4294 40.4562 59.1809 40.4562 58.9219C40.4562 58.6629 40.3533 58.4144 40.1701 58.2313C39.9869 58.0481 39.7385 57.9452 39.4795 57.9452C39.2204 57.9452 38.972 58.0481 38.7889 58.2313L34.1853 62.8352C34.0023 63.0183 33.8994 63.2667 33.8994 63.5256C33.8994 63.7846 34.0023 64.0329 34.1853 64.216L38.7892 68.8195C38.9726 69.0014 39.2206 69.1032 39.4788 69.1027C39.7371 69.1021 39.9846 68.9993 40.1673 68.8167C40.3499 68.6341 40.4528 68.3866 40.4534 68.1284C40.454 67.8701 40.3523 67.6221 40.1705 67.4387L37.2338 64.502H47.2748V78.7C47.2748 78.959 47.3777 79.2074 47.5608 79.3906C47.744 79.5737 47.9924 79.6766 48.2514 79.6766H78.6002C78.8592 79.6766 79.1076 79.5737 79.2907 79.3906C79.4739 79.2074 79.5767 78.959 79.5767 78.7V48.3508C79.5767 48.2225 79.5515 48.0955 79.5024 47.977C79.4533 47.8585 79.3813 47.7508 79.2906 47.6601C79.1999 47.5694 79.0922 47.4975 78.9736 47.4485C78.8551 47.3994 78.7281 47.3742 78.5998 47.3742ZM77.6232 77.7235H49.2275V49.3274H77.6232V77.7235Z" fill="currentColor"/>
<path d="M42.7668 17.4043L39.8301 20.3406C39.7394 20.4313 39.6674 20.539 39.6184 20.6575C39.5693 20.776 39.544 20.903 39.544 21.0312C39.544 21.1595 39.5693 21.2865 39.6184 21.405C39.6674 21.5235 39.7394 21.6312 39.8301 21.7219C39.9208 21.8126 40.0284 21.8845 40.1469 21.9336C40.2654 21.9827 40.3924 22.0079 40.5207 22.0079C40.649 22.0079 40.776 21.9827 40.8945 21.9336C41.013 21.8845 41.1206 21.8126 41.2113 21.7219L45.8148 17.118C45.9979 16.9348 46.1008 16.6865 46.1008 16.4275C46.1008 16.1686 45.9979 15.9202 45.8148 15.7371L41.2109 11.1336C41.0276 10.9517 40.7796 10.8499 40.5213 10.8505C40.2631 10.851 40.0155 10.9538 39.8329 11.1364C39.6503 11.319 39.5474 11.5665 39.5468 11.8248C39.5462 12.083 39.6479 12.331 39.8297 12.5144L42.7664 15.4512H32.7273V1.25311C32.7273 0.994112 32.6245 0.74572 32.4413 0.562579C32.2582 0.379438 32.0098 0.27655 31.7508 0.27655H1.40039C1.14139 0.27655 0.892998 0.379438 0.709857 0.562579C0.526716 0.74572 0.423828 0.994112 0.423828 1.25311V31.6023C0.423828 31.8613 0.526716 32.1097 0.709857 32.2929C0.892998 32.476 1.14139 32.5789 1.40039 32.5789H31.7492C32.0082 32.5789 32.2566 32.476 32.4398 32.2929C32.6229 32.1097 32.7258 31.8613 32.7258 31.6023V17.4043H42.7668ZM30.7746 30.6258H2.37695V2.22968H30.7727L30.7746 30.6258Z" fill="currentColor"/>
<path d="M16.5748 74.843C18.8132 74.843 21.0014 74.1793 22.8626 72.9358C24.7238 71.6922 26.1745 69.9247 27.0311 67.8567C27.8878 65.7887 28.112 63.5131 27.6753 61.3177C27.2387 59.1222 26.1608 57.1056 24.578 55.5228C22.9952 53.94 20.9787 52.862 18.7832 52.4253C16.5878 51.9886 14.3122 52.2127 12.2442 53.0693C10.1761 53.9259 8.40856 55.3765 7.16495 57.2376C5.92134 59.0988 5.25757 61.287 5.25757 63.5254C5.26098 66.5259 6.45441 69.4025 8.57604 71.5242C10.6977 73.6459 13.5743 74.8394 16.5748 74.843V74.843ZM16.5748 54.1613C18.4269 54.1612 20.2375 54.7104 21.7775 55.7394C23.3176 56.7683 24.5179 58.2308 25.2267 59.942C25.9355 61.6531 26.121 63.536 25.7597 65.3526C25.3984 67.1692 24.5065 68.8378 23.1968 70.1474C21.8872 71.4571 20.2185 72.349 18.402 72.7103C16.5854 73.0716 14.7025 72.8861 12.9913 72.1773C11.2802 71.4685 9.81768 70.2682 8.78873 68.7281C7.75978 67.1881 7.21062 65.3775 7.21069 63.5254C7.21359 61.0428 8.20109 58.6627 9.95656 56.9072C11.712 55.1517 14.0921 54.1642 16.5748 54.1613V54.1613Z" fill="currentColor"/>
<path d="M15.5986 67.1973C15.5826 67.1973 15.5662 67.1973 15.5502 67.1973C15.414 67.1904 15.2806 67.1551 15.1589 67.0936C15.0371 67.0322 14.9295 66.9458 14.8432 66.8402L12.1201 63.5125C12.0363 63.4136 11.9731 63.299 11.934 63.1753C11.895 63.0517 11.8809 62.9215 11.8927 62.7924C11.9045 62.6633 11.9419 62.5378 12.0027 62.4233C12.0635 62.3088 12.1465 62.2076 12.2468 62.1255C12.3471 62.0434 12.4628 61.982 12.5871 61.9451C12.7114 61.9082 12.8417 61.8964 12.9706 61.9104C13.0995 61.9244 13.2243 61.9639 13.3378 62.0266C13.4512 62.0894 13.5511 62.1741 13.6315 62.2758L15.6713 64.768L19.8998 60.5398C19.9899 60.4466 20.0977 60.3722 20.2168 60.321C20.3359 60.2698 20.4641 60.2429 20.5938 60.2417C20.7234 60.2406 20.852 60.2653 20.972 60.3144C21.092 60.3635 21.2011 60.436 21.2928 60.5277C21.3845 60.6194 21.457 60.7285 21.5061 60.8485C21.5552 60.9685 21.5799 61.0971 21.5788 61.2267C21.5776 61.3564 21.5507 61.4846 21.4995 61.6037C21.4483 61.7228 21.3739 61.8306 21.2807 61.9207L16.2893 66.9109C16.1986 67.0017 16.0909 67.0737 15.9724 67.1228C15.8539 67.1719 15.7269 67.1972 15.5986 67.1973V67.1973Z" fill="currentColor"/>
<path d="M65.455 11.675H56.3406C56.0816 11.675 55.8332 11.5721 55.65 11.389C55.4669 11.2058 55.364 10.9574 55.364 10.6984C55.364 10.4394 55.4669 10.1911 55.65 10.0079C55.8332 9.82477 56.0816 9.72189 56.3406 9.72189H65.455C65.714 9.72189 65.9624 9.82477 66.1456 10.0079C66.3287 10.1911 66.4316 10.4394 66.4316 10.6984C66.4316 10.9574 66.3287 11.2058 66.1456 11.389C65.9624 11.5721 65.714 11.675 65.455 11.675V11.675Z" fill="currentColor"/>
<path d="M69.3613 17.4043H56.3406C56.0816 17.4043 55.8332 17.3014 55.65 17.1183C55.4669 16.9351 55.364 16.6867 55.364 16.4277C55.364 16.1687 55.4669 15.9204 55.65 15.7372C55.8332 15.5541 56.0816 15.4512 56.3406 15.4512H69.3613C69.6203 15.4512 69.8687 15.5541 70.0518 15.7372C70.235 15.9204 70.3378 16.1687 70.3378 16.4277C70.3378 16.6867 70.235 16.9351 70.0518 17.1183C69.8687 17.3014 69.6203 17.4043 69.3613 17.4043V17.4043Z" fill="currentColor"/>
<path d="M69.3613 23.1336H56.3406C56.0816 23.1336 55.8332 23.0307 55.65 22.8476C55.4669 22.6644 55.364 22.416 55.364 22.157C55.364 21.898 55.4669 21.6496 55.65 21.4665C55.8332 21.2834 56.0816 21.1805 56.3406 21.1805H69.3613C69.6203 21.1805 69.8687 21.2834 70.0518 21.4665C70.235 21.6496 70.3378 21.898 70.3378 22.157C70.3378 22.416 70.235 22.6644 70.0518 22.8476C69.8687 23.0307 69.6203 23.1336 69.3613 23.1336V23.1336Z" fill="currentColor"/>
<path d="M65.455 58.7727H56.3406C56.0816 58.7727 55.8332 58.6698 55.65 58.4866C55.4669 58.3035 55.364 58.0551 55.364 57.7961C55.364 57.5371 55.4669 57.2887 55.65 57.1056C55.8332 56.9224 56.0816 56.8195 56.3406 56.8195H65.455C65.714 56.8195 65.9624 56.9224 66.1456 57.1056C66.3287 57.2887 66.4316 57.5371 66.4316 57.7961C66.4316 58.0551 66.3287 58.3035 66.1456 58.4866C65.9624 58.6698 65.714 58.7727 65.455 58.7727V58.7727Z" fill="currentColor"/>
<path d="M69.3613 64.502H56.3406C56.0816 64.502 55.8332 64.3991 55.65 64.2159C55.4669 64.0328 55.364 63.7844 55.364 63.5254C55.364 63.2664 55.4669 63.018 55.65 62.8349C55.8332 62.6517 56.0816 62.5488 56.3406 62.5488H69.3613C69.6203 62.5488 69.8687 62.6517 70.0518 62.8349C70.235 63.018 70.3378 63.2664 70.3378 63.5254C70.3378 63.7844 70.235 64.0328 70.0518 64.2159C69.8687 64.3991 69.6203 64.502 69.3613 64.502V64.502Z" fill="currentColor"/>
<path d="M69.3613 70.2313H56.3406C56.0816 70.2313 55.8332 70.1284 55.65 69.9452C55.4669 69.7621 55.364 69.5137 55.364 69.2547C55.364 68.9957 55.4669 68.7473 55.65 68.5642C55.8332 68.381 56.0816 68.2781 56.3406 68.2781H69.3613C69.6203 68.2781 69.8687 68.381 70.0518 68.5642C70.235 68.7473 70.3378 68.9957 70.3378 69.2547C70.3378 69.5137 70.235 69.7621 70.0518 69.9452C69.8687 70.1284 69.6203 70.2313 69.3613 70.2313V70.2313Z" fill="currentColor"/>
</svg>
